Sweet-Rainbow/icons/copyq.svg

<?xml version="1.0" encoding="UTF-8" standalone="no"?>
<!-- Generator: Gravit.io -->

<svg
   xmlns:dc="http://purl.org/dc/elements/1.1/"
   xmlns:cc="http://creativecommons.org/ns#"
   xmlns:rdf="http://www.w3.org/1999/02/22-rdf-syntax-ns#"
   xmlns:svg="http://www.w3.org/2000/svg"
   xmlns="http://www.w3.org/2000/svg"
   xmlns:sodipodi="http://sodipodi.sourceforge.net/DTD/sodipodi-0.dtd"
   xmlns:inkscape="http://www.inkscape.org/namespaces/inkscape"
   style="isolation:isolate"
   viewBox="0 0 36 36"
   width="48"
   height="48"
   version="1.1"
   id="svg9"
   sodipodi:docname="copyq.svg"
   inkscape:version="0.92.4 (5da689c313, 2019-01-14)">
  <metadata
     id="metadata15">
    <rdf:RDF>
      <cc:Work
         rdf:about="">
        <dc:format>image/svg+xml</dc:format>
        <dc:type
           rdf:resource="http://purl.org/dc/dcmitype/StillImage" />
        <dc:title></dc:title>
      </cc:Work>
    </rdf:RDF>
  </metadata>
  <defs
     id="defs13" />
  <sodipodi:namedview
     pagecolor="#ffffff"
     bordercolor="#666666"
     borderopacity="1"
     objecttolerance="10"
     gridtolerance="10"
     guidetolerance="10"
     inkscape:pageopacity="0"
     inkscape:pageshadow="2"
     inkscape:window-width="640"
     inkscape:window-height="480"
     id="namedview11"
     showgrid="false"
     inkscape:zoom="29.365243"
     inkscape:cx="25.325443"
     inkscape:cy="32"
     inkscape:current-layer="svg9"
     units="px" />
  <linearGradient
     id="_lgradient_73"
     x1="0.67180997"
     y1="0.020570019"
     x2="0.42214948"
     y2="0.96016449"
     gradientTransform="matrix(42,0,0,42.81,3.5,2.69)"
     gradientUnits="userSpaceOnUse">
    <stop
       offset="0%"
       stop-opacity="1"
       style="stop-color:rgb(26,108,255)"
       id="stop2" />
    <stop
       offset="100%"
       stop-opacity="1"
       style="stop-color:rgb(197,34,255)"
       id="stop4" />
  </linearGradient>
  <g
     id="g826"
     transform="matrix(0.84091635,0,0,0.84091635,-2.6024506,-2.2616938)">
    <path
       id="path7"
       d="m 25.386,31.626 -3.947,5.92 C 21.205,39.55 20.301,41.427 18.86,42.86 17.18,44.55 14.89,45.5 12.5,45.5 10.11,45.5 7.82,44.55 6.14,42.86 4.45,41.18 3.5,38.89 3.5,36.5 v 0 0 c 0,-2.39 0.95,-4.68 2.64,-6.36 1.68,-1.69 3.97,-2.64 6.36,-2.64 2.39,0 4.68,0.95 6.36,2.64 0.848,0.843 1.51,1.84 1.959,2.926 v 0 0 L 24.087,28.165 24.07,28.12 24.132,28.097 30.75,18.17 v 0 c 0.458,-0.69 1.39,-0.878 2.08,-0.42 v 0 c 0.69,0.458 0.878,1.39 0.42,2.08 v 0 l -5.818,8.726 1.285,3.426 c 0.389,-0.668 0.866,-1.288 1.423,-1.842 1.68,-1.69 3.97,-2.64 6.36,-2.64 2.39,0 4.68,0.95 6.36,2.64 1.69,1.68 2.64,3.97 2.64,6.36 0,2.39 -0.95,4.68 -2.64,6.36 -1.68,1.69 -3.97,2.64 -6.36,2.64 -2.39,0 -4.68,-0.95 -6.36,-2.64 -1.482,-1.473 -2.395,-3.415 -2.597,-5.482 v 0 z M 6.5,36.5 c 0,-1.59 0.63,-3.12 1.76,-4.24 1.12,-1.13 2.65,-1.76 4.24,-1.76 1.59,0 3.12,0.63 4.24,1.76 1.13,1.12 1.76,2.65 1.76,4.24 0,1.59 -0.63,3.12 -1.76,4.24 -1.12,1.13 -2.65,1.76 -4.24,1.76 -1.59,0 -3.12,-0.63 -4.24,-1.76 C 7.13,39.62 6.5,38.09 6.5,36.5 Z m 24,0 c 0,-1.59 0.63,-3.12 1.76,-4.24 1.12,-1.13 2.65,-1.76 4.24,-1.76 1.59,0 3.12,0.63 4.24,1.76 1.13,1.12 1.76,2.65 1.76,4.24 0,1.59 -0.63,3.12 -1.76,4.24 -1.12,1.13 -2.65,1.76 -4.24,1.76 -1.59,0 -3.12,-0.63 -4.24,-1.76 C 31.13,39.62 30.5,38.09 30.5,36.5 Z M 25.38,13.12 22.45,7.25 c 0,0 -0.01,-0.01 -0.01,-0.01 C 22.21,6.77 21.86,6.36 21.42,6.07 21.09,5.83 20.69,5.71 20.28,5.7 c -0.21,0 -0.42,0.05 -0.61,0.14 -0.26,0.13 -0.47,0.34 -0.61,0.6 -0.18,0.34 -0.27,0.71 -0.26,1.09 0,0.47 0.11,0.94 0.33,1.37 0,0 0,0 0,0.01 l 3.99,7.98 z m 1.83,-3.05 2.44,-4.41 c 0.53,-0.89 1.27,-1.63 2.15,-2.16 0.85,-0.52 1.82,-0.8 2.81,-0.81 0.72,-0.01 1.42,0.15 2.06,0.47 0.81,0.41 1.48,1.06 1.91,1.87 0.42,0.77 0.63,1.64 0.62,2.52 0,0.94 -0.23,1.86 -0.65,2.7 l -2.21,4.42 v 0 c -0.37,0.74 -1.27,1.04 -2.01,0.67 v 0 c -0.74,-0.37 -1.04,-1.27 -0.67,-2.01 v 0 l 2.21,-4.42 c 0,-0.01 0,-0.01 0,-0.01 C 36.09,8.47 36.2,8 36.2,7.53 36.21,7.15 36.12,6.78 35.94,6.44 35.8,6.19 35.59,5.98 35.33,5.84 35.12,5.74 34.88,5.68 34.64,5.69 c -0.45,0 -0.89,0.13 -1.27,0.37 -0.47,0.28 -0.86,0.67 -1.14,1.14 0,0 0,0 0,0 l -3.43,6.05 -4.89,8.145 c -0.569,0.947 -1.431,0.913 -1.924,-0.074 L 16.45,10.25 C 16.03,9.41 15.8,8.49 15.8,7.55 15.79,6.67 16,5.8 16.42,5.03 16.85,4.22 17.51,3.57 18.33,3.16 18.94,2.85 19.62,2.69 20.31,2.7 c 1,0.01 1.98,0.32 2.81,0.89 0.86,0.59 1.55,1.39 2.01,2.32 z"
       style="fill:url(#_lgradient_73);fill-rule:evenodd"
       inkscape:connector-curvature="0" />
  </g>
</svg>

<?xml version="1.0" encoding="UTF-8" standalone="no"?><!-- Generator: Gravit.io --><svg xmlns="http://www.w3.org/2000/svg" xmlns:xlink="http://www.w3.org/1999/xlink" style="isolation:isolate" viewBox="0 0 48 48" width="48pt" height="48pt"><linearGradient id="_lgradient_73" x1="0.6718099850460906" y1="0.020570018975650584" x2="0.4221494918345081" y2="0.9601645064179158" gradientTransform="matrix(42,0,0,42.81,3.5,2.69)" gradientUnits="userSpaceOnUse"><stop offset="0%" stop-opacity="1" style="stop-color:rgb(26,108,255)"/><stop offset="100%" stop-opacity="1" style="stop-color:rgb(197,34,255)"/></linearGradient><path d=" M 25.386 31.626 L 21.439 37.546 C 21.205 39.55 20.301 41.427 18.86 42.86 C 17.18 44.55 14.89 45.5 12.5 45.5 C 10.11 45.5 7.82 44.55 6.14 42.86 C 4.45 41.18 3.5 38.89 3.5 36.5 L 3.5 36.5 L 3.5 36.5 C 3.5 34.11 4.45 31.82 6.14 30.14 C 7.82 28.45 10.11 27.5 12.5 27.5 C 14.89 27.5 17.18 28.45 18.86 30.14 C 19.708 30.983 20.37 31.98 20.819 33.066 L 20.819 33.066 L 20.819 33.066 L 24.087 28.165 L 24.07 28.12 L 24.132 28.097 L 30.75 18.17 L 30.75 18.17 C 31.208 17.48 32.14 17.292 32.83 17.75 L 32.83 17.75 C 33.52 18.208 33.708 19.14 33.25 19.83 L 33.25 19.83 L 27.432 28.556 L 28.717 31.982 C 29.106 31.314 29.583 30.694 30.14 30.14 C 31.82 28.45 34.11 27.5 36.5 27.5 C 38.89 27.5 41.18 28.45 42.86 30.14 C 44.55 31.82 45.5 34.11 45.5 36.5 C 45.5 38.89 44.55 41.18 42.86 42.86 C 41.18 44.55 38.89 45.5 36.5 45.5 C 34.11 45.5 31.82 44.55 30.14 42.86 C 28.658 41.387 27.745 39.445 27.543 37.378 L 27.543 37.378 L 25.386 31.626 Z  M 6.5 36.5 C 6.5 34.91 7.13 33.38 8.26 32.26 C 9.38 31.13 10.91 30.5 12.5 30.5 C 14.09 30.5 15.62 31.13 16.74 32.26 C 17.87 33.38 18.5 34.91 18.5 36.5 C 18.5 38.09 17.87 39.62 16.74 40.74 C 15.62 41.87 14.09 42.5 12.5 42.5 C 10.91 42.5 9.38 41.87 8.26 40.74 C 7.13 39.62 6.5 38.09 6.5 36.5 L 6.5 36.5 L 6.5 36.5 L 6.5 36.5 L 6.5 36.5 Z  M 30.5 36.5 C 30.5 34.91 31.13 33.38 32.26 32.26 C 33.38 31.13 34.91 30.5 36.5 30.5 C 38.09 30.5 39.62 31.13 40.74 32.26 C 41.87 33.38 42.5 34.91 42.5 36.5 C 42.5 38.09 41.87 39.62 40.74 40.74 C 39.62 41.87 38.09 42.5 36.5 42.5 C 34.91 42.5 33.38 41.87 32.26 40.74 C 31.13 39.62 30.5 38.09 30.5 36.5 L 30.5 36.5 L 30.5 36.5 L 30.5 36.5 L 30.5 36.5 Z  M 25.38 13.12 L 22.45 7.25 C 22.45 7.25 22.44 7.24 22.44 7.24 C 22.21 6.77 21.86 6.36 21.42 6.07 C 21.09 5.83 20.69 5.71 20.28 5.7 C 20.07 5.7 19.86 5.75 19.67 5.84 C 19.41 5.97 19.2 6.18 19.06 6.44 C 18.88 6.78 18.79 7.15 18.8 7.53 C 18.8 8 18.91 8.47 19.13 8.9 C 19.13 8.9 19.13 8.9 19.13 8.91 L 23.12 16.89 L 25.38 13.12 L 25.38 13.12 L 25.38 13.12 Z  M 27.21 10.07 L 29.65 5.66 C 30.18 4.77 30.92 4.03 31.8 3.5 C 32.65 2.98 33.62 2.7 34.61 2.69 C 35.33 2.68 36.03 2.84 36.67 3.16 C 37.48 3.57 38.15 4.22 38.58 5.03 C 39 5.8 39.21 6.67 39.2 7.55 C 39.2 8.49 38.97 9.41 38.55 10.25 L 36.34 14.67 L 36.34 14.67 C 35.97 15.41 35.07 15.71 34.33 15.34 L 34.33 15.34 C 33.59 14.97 33.29 14.07 33.66 13.33 L 33.66 13.33 L 35.87 8.91 C 35.87 8.9 35.87 8.9 35.87 8.9 C 36.09 8.47 36.2 8 36.2 7.53 C 36.21 7.15 36.12 6.78 35.94 6.44 C 35.8 6.19 35.59 5.98 35.33 5.84 C 35.12 5.74 34.88 5.68 34.64 5.69 C 34.19 5.69 33.75 5.82 33.37 6.06 C 32.9 6.34 32.51 6.73 32.23 7.2 C 32.23 7.2 32.23 7.2 32.23 7.2 L 28.8 13.25 L 23.91 21.395 C 23.341 22.342 22.479 22.308 21.986 21.321 L 16.45 10.25 C 16.03 9.41 15.8 8.49 15.8 7.55 C 15.79 6.67 16 5.8 16.42 5.03 C 16.85 4.22 17.51 3.57 18.33 3.16 C 18.94 2.85 19.62 2.69 20.31 2.7 C 21.31 2.71 22.29 3.02 23.12 3.59 C 23.98 4.18 24.67 4.98 25.13 5.91 L 27.21 10.07 L 27.21 10.07 L 27.21 10.07 Z " fill-rule="evenodd" fill="url(#_lgradient_73)"/></svg>
